!!!COM: Unknown
!!!CDT: b. 1929
!!!OTL: National Anthem, The Gambia
!!!ENC: Davis, Matthew J.
!!Vocal Line Only
**kern
*clefG2
*k[]
*C:
*M3/4
=1-
8cc
8b
=2
4a
8a
8g
8f
8e
=3
4d
4d
8e
8f
=4
4.g
8f
8e
8d
=5
2c
8cc
8b
=6
4a
8a
8g
8f
8e
=7
8d
8d
4d
8b
8a
=8
4.g
8d
8e
8d
=9
2c
4g
=10
4.a
8g
8f
8e
=11
4d
4d
8b
8a
=12
4.g
8d
8g
8f
=13
2e
8a
8b
=14
4.cc
8b
8a
8g
=15
8f
8e
4d
8b
8a
=16
4.g
8d
8e
8d
=17
2c
4e
=18
4.cc
8b
8a
8cc
=19
4g
4g
8a
8b
=20
4.cc
8b
8a
8b
=21
2g
4dd
=22
4.cc
8b
8a
8g
=23
8f
8e
4d
8b
8a
=24
4.g
8d
8e
8d
=25
2c
==|!
*-
